packages/katcn/src/icons/svg/list-solid.svg

<svg width="24" height="25" viewBox="0 0 24 25" fill="none" xmlns="http://www.w3.org/2000/svg">
<path d="M4.6 7.49602C6.03594 7.49602 7.2 6.33196 7.2 4.89602C7.2 3.46008 6.03594 2.29602 4.6 2.29602C3.16406 2.29602 2 3.46008 2 4.89602C2 6.33196 3.16406 7.49602 4.6 7.49602Z" fill="black"/>
<path d="M4.6 14.896C6.03594 14.896 7.2 13.732 7.2 12.296C7.2 10.8601 6.03594 9.69601 4.6 9.69601C3.16406 9.69601 2 10.8601 2 12.296C2 13.732 3.16406 14.896 4.6 14.896Z" fill="black"/>
<path d="M4.6 22.296C6.03594 22.296 7.2 21.1319 7.2 19.696C7.2 18.2601 6.03594 17.096 4.6 17.096C3.16406 17.096 2 18.2601 2 19.696C2 21.1319 3.16406 22.296 4.6 22.296Z" fill="black"/>
<path d="M10.4 6.79603H20.2C21.2 6.79603 22.1 5.99603 22.1 4.89603C22.1 3.89603 21.3 2.99603 20.2 2.99603H10.4C9.4 2.99603 8.5 3.79603 8.5 4.89603C8.5 5.89603 9.3 6.79603 10.4 6.79603Z" fill="black"/>
<path d="M20.1 10.396H10.4C9.4 10.396 8.5 11.196 8.5 12.296C8.5 13.296 9.3 14.196 10.4 14.196H20.2C21.2 14.196 22.1 13.396 22.1 12.296C22 11.296 21.2 10.396 20.1 10.396Z" fill="black"/>
<path d="M20.1 17.796H10.4C9.4 17.796 8.5 18.596 8.5 19.696C8.5 20.696 9.3 21.596 10.4 21.596H20.2C21.2 21.596 22.1 20.796 22.1 19.696C22 18.596 21.2 17.796 20.1 17.796Z" fill="black"/>
</svg>

<svg xmlns="http://www.w3.org/2000/svg" fill="none" viewBox="0 0 24 25"><path fill="#000" d="M4.6 7.496a2.6 2.6 0 1 0 0-5.2 2.6 2.6 0 0 0 0 5.2m0 7.4a2.6 2.6 0 1 0 0-5.2 2.6 2.6 0 0 0 0 5.2m0 7.4a2.6 2.6 0 1 0 0-5.2 2.6 2.6 0 0 0 0 5.2m5.8-15.5h9.8c1 0 1.9-.8 1.9-1.9 0-1-.8-1.9-1.9-1.9h-9.8c-1 0-1.9.8-1.9 1.9 0 1 .8 1.9 1.9 1.9m9.7 3.6h-9.7c-1 0-1.9.8-1.9 1.9 0 1 .8 1.9 1.9 1.9h9.8c1 0 1.9-.8 1.9-1.9-.1-1-.9-1.9-2-1.9m0 7.4h-9.7c-1 0-1.9.8-1.9 1.9 0 1 .8 1.9 1.9 1.9h9.8c1 0 1.9-.8 1.9-1.9-.1-1.1-.9-1.9-2-1.9"/></svg>
